src/lib/packages/icons/src/assets/line/copy-plus.svg

<svg width="24" height="24" viewBox="0 0 24 24" fill="none" xmlns="http://www.w3.org/2000/svg">
<path d="M18.375 6.25H9.625C7.448 6.25 6.25 7.448 6.25 9.625V18.375C6.25 20.552 7.448 21.75 9.625 21.75H18.375C20.552 21.75 21.75 20.552 21.75 18.375V9.625C21.75 7.448 20.552 6.25 18.375 6.25ZM20.25 18.375C20.25 19.707 19.707 20.25 18.375 20.25H9.625C8.293 20.25 7.75 19.707 7.75 18.375V9.625C7.75 8.293 8.293 7.75 9.625 7.75H18.375C19.707 7.75 20.25 8.293 20.25 9.625V18.375ZM3.75 5.62V14.38C3.75 15.578 4.23309 15.873 4.39209 15.971C4.74609 16.187 4.85589 16.649 4.63989 17.002C4.49789 17.233 4.25202 17.36 3.99902 17.36C3.86602 17.36 3.72991 17.324 3.60791 17.25C2.70691 16.698 2.25 15.733 2.25 14.38V5.62C2.25 3.478 3.47912 2.25 5.62012 2.25H14.3799C16.0649 2.25 16.87 2.98897 17.25 3.60797C17.466 3.96097 17.355 4.42298 17.002 4.63898C16.648 4.85598 16.1869 4.74399 15.9709 4.39099C15.8739 4.23199 15.5779 3.74902 14.3799 3.74902H5.62012C4.29212 3.75002 3.75 4.292 3.75 5.62ZM17.25 14C17.25 14.414 16.914 14.75 16.5 14.75H14.75V16.5C14.75 16.914 14.414 17.25 14 17.25C13.586 17.25 13.25 16.914 13.25 16.5V14.75H11.5C11.086 14.75 10.75 14.414 10.75 14C10.75 13.586 11.086 13.25 11.5 13.25H13.25V11.5C13.25 11.086 13.586 10.75 14 10.75C14.414 10.75 14.75 11.086 14.75 11.5V13.25H16.5C16.914 13.25 17.25 13.586 17.25 14Z" fill="currentColor"/>
</svg>

<svg xmlns="http://www.w3.org/2000/svg" width="24" height="24" fill="none"><path fill="currentColor" d="M18.375 6.25h-8.75c-2.177 0-3.375 1.198-3.375 3.375v8.75c0 2.177 1.198 3.375 3.375 3.375h8.75c2.177 0 3.375-1.198 3.375-3.375v-8.75c0-2.177-1.198-3.375-3.375-3.375Zm1.875 12.125c0 1.332-.543 1.875-1.875 1.875h-8.75c-1.332 0-1.875-.543-1.875-1.875v-8.75c0-1.332.543-1.875 1.875-1.875h8.75c1.332 0 1.875.543 1.875 1.875v8.75ZM3.75 5.62v8.76c0 1.198.483 1.493.642 1.591a.75.75 0 1 1-.784 1.279c-.901-.552-1.358-1.517-1.358-2.87V5.62c0-2.142 1.23-3.37 3.37-3.37h8.76c1.685 0 2.49.739 2.87 1.358a.75.75 0 0 1-1.28.783c-.096-.159-.392-.642-1.59-.642H5.62c-1.328.001-1.87.543-1.87 1.871ZM17.25 14a.75.75 0 0 1-.75.75h-1.75v1.75a.75.75 0 0 1-1.5 0v-1.75H11.5a.75.75 0 0 1 0-1.5h1.75V11.5a.75.75 0 0 1 1.5 0v1.75h1.75a.75.75 0 0 1 .75.75Z"/></svg>
